Papirus/22x22/mimetypes/application-x-sqlite2.svg

<?xml version="1.0" encoding="UTF-8" standalone="no"?>
<svg xmlns="http://www.w3.org/2000/svg" height="22" width="22" version="1">
 <g transform="translate(-1,-1)">
  <path d="m5 2c-0.554 0-1 0.446-1 1v18c0 0.554 0.446 1 1 1h14c0.554 0 1-0.446 1-1v-13l-5.5-0.5-0.5-5.5z" fill="#ccc"/>
  <path opacity=".2" d="m5 2c-0.554 0-1 0.446-1 1v0.5c0-0.554 0.446-1 1-1h9l5.5 5.5h0.5l-6-6z" fill="#fff"/>
  <path d="m14 2v5c0 0.5523 0.44772 1 1 1h5l-6-6z" fill="#ebebeb"/>
  <g opacity=".5" transform="matrix(.0893 0 0 .094635 7.2536 10)">
   <g>
    <g>
     <g>
      <g>
       <g>
        <path d="m47.561 0c-21.633 0-39.171 6.393-39.171 14.283v11.72c0 7.891 17.538 14.282 39.171 14.282 21.632 0 39.17-6.392 39.17-14.282v-11.72c0-7.89-17.538-14.283-39.17-14.283z"/>
       </g>
      </g>
      <g>
       <g>
        <path d="m47.561 47.115c-20.654 0-37.682-5.832-39.171-13.227-0.071 0.353 0 19.355 0 19.355 0 7.892 17.538 14.283 39.171 14.283 21.632 0 39.17-6.393 39.17-14.283 0 0 0.044-19.003-0.026-19.355-1.491 7.396-18.491 13.227-39.144 13.227z"/>
       </g>
      </g>
      <path d="m86.694 61.464c-1.488 7.391-18.479 13.226-39.133 13.226s-37.686-5.836-39.175-13.226l0.004 19.356c0 7.891 17.538 14.282 39.171 14.282 21.632 0 39.17-6.393 39.17-14.282l-0.037-19.356z"/>
     </g>
    </g>
   </g>
  </g>
 </g>
</svg>

<svg xmlns="http://www.w3.org/2000/svg" width="22" height="22" version="1">
 <g transform="translate(-1,-1)">
  <path style="opacity:0.2;fill:#020202" d="m 5,2.5 c -0.554,0 -1,0.446 -1,1 v 18 c 0,0.554 0.446,1 1,1 h 14 c 0.554,0 1,-0.446 1,-1 V 8.5 L 14.5,8 14,2.5 Z"/>
  <path style="fill:#cccccc" d="M 5,2 C 4.446,2 4,2.446 4,3 v 18 c 0,0.554 0.446,1 1,1 h 14 c 0.554,0 1,-0.446 1,-1 V 8 L 14.5,7.5 14,2 Z"/>
  <path style="opacity:0.2;fill:#ffffff" d="M 5,2 C 4.446,2 4,2.446 4,3 v 0.5 c 0,-0.554 0.446,-1 1,-1 h 9 L 19.5,8 H 20 L 14,2 Z"/>
  <path style="opacity:0.2;fill:#020202" d="m 14,2.5 v 5 c 0,0.5523 0.44772,1 1,1 h 5 z"/>
  <path style="fill:#ebebeb" d="m 14,2 v 5 c 0,0.5523 0.44772,1 1,1 h 5 z"/>
  <g style="opacity:0.5" transform="matrix(0.0893,0,0,0.094635,7.2536,10)">
   <g>
    <g>
     <g>
      <g>
       <g>
        <path d="M 47.561,0 C 25.928,0 8.39,6.393 8.39,14.283 v 11.72 c 0,7.891 17.538,14.282 39.171,14.282 21.632,0 39.17,-6.392 39.17,-14.282 V 14.283 C 86.731,6.393 69.193,0 47.561,0 Z"/>
       </g>
      </g>
      <g>
       <g>
        <path d="m 47.561,47.115 c -20.654,0 -37.682,-5.832 -39.171,-13.227 -0.071,0.353 0,19.355 0,19.355 0,7.892 17.538,14.283 39.171,14.283 21.632,0 39.17,-6.393 39.17,-14.283 0,0 0.044,-19.003 -0.026,-19.355 -1.491,7.396 -18.491,13.227 -39.144,13.227 z"/>
       </g>
      </g>
      <path d="M 86.694,61.464 C 85.206,68.855 68.215,74.69 47.561,74.69 26.907,74.69 9.875,68.854 8.386,61.464 L 8.39,80.82 c 0,7.891 17.538,14.282 39.171,14.282 21.632,0 39.17,-6.393 39.17,-14.282 z"/>
     </g>
    </g>
   </g>
  </g>
 </g>
</svg>
